src/images/icon-char-4.v3.svg

<svg width="52" height="48" viewBox="0 0 52 48" fill="none" xmlns="http://www.w3.org/2000/svg">
<path d="M17.1923 31.1025L16.902 32.0474C16.5219 33.2984 16.1524 34.5072 15.7988 35.7952C15.6087 36.492 15.3659 37.1624 15.0756 37.8117C14.78 38.4504 14.4369 39.0733 14.0515 39.6803V39.6856C13.3284 40.8099 12.6369 41.9449 11.9453 43.0798C11.3066 44.1249 10.6679 45.1754 10.0398 46.1625C9.75471 46.6112 9.4116 46.9754 9.02626 47.2446C8.48255 47.63 7.87023 47.8358 7.24735 47.8517C6.62447 47.8728 6.00159 47.7039 5.44733 47.3502C5.06727 47.1127 4.7136 46.7801 4.41799 46.3631C3.94819 45.7033 3.774 45.017 3.81095 44.3308C3.84262 43.671 4.07488 43.0164 4.41271 42.3935L4.51301 42.2141C5.24674 40.868 5.99103 39.5167 6.84617 38.234C7.72243 36.9196 8.42449 35.5366 8.98931 34.1008C9.5594 32.6544 9.99225 31.1553 10.3406 29.6139C10.9318 27.0168 11.6022 24.4461 12.2673 21.8701C12.5366 20.8355 12.8058 19.8009 13.1172 18.5815C12.9536 18.6502 12.811 18.7293 12.6844 18.8244C12.4099 19.0302 12.204 19.3258 12.0615 19.764C11.6445 21.0625 11.1377 22.3188 10.631 23.5751C10.4515 24.0238 10.272 24.4725 10.0767 24.9687C9.75999 25.7763 9.25324 26.3359 8.60924 26.6209C7.96525 26.906 7.2104 26.9007 6.39749 26.5893V26.5945L6.34998 26.5734C5.69543 26.3095 5.24674 25.8027 5.04087 25.164C4.84028 24.557 4.86668 23.8285 5.15172 23.0842L5.1834 23.0103L5.94352 21.1522C6.57696 19.6056 7.20512 18.0642 7.87023 16.3751C8.11305 15.7575 8.41921 15.1926 8.80455 14.6912C9.18989 14.1844 9.65969 13.7357 10.2245 13.361C10.7207 13.0337 11.2644 12.6642 11.8134 12.2947C13.0328 11.4712 14.2468 10.6477 15.5243 9.8876V9.89288C16.5483 9.28056 17.6093 9.00607 18.6704 8.99023C19.8264 8.97439 20.9771 9.27 22.0804 9.79258C22.4657 9.97206 22.8194 10.2677 23.1255 10.6055C23.4898 11.0067 23.7959 11.4818 24.0335 11.9252C24.7197 13.1973 25.3531 14.5064 25.9866 15.8102C26.3983 16.6654 26.81 17.5205 27.264 18.4073V18.4126C27.3432 18.5657 27.4487 18.7135 27.5754 18.8508C27.7074 18.9986 27.8605 19.1305 28.0188 19.2414C28.874 19.822 29.7502 20.3816 30.6265 20.9411C31.1491 21.2789 31.6769 21.6168 32.1467 21.9229C32.569 22.2027 32.9122 22.5353 33.1444 22.9364C33.382 23.3534 33.4928 23.8391 33.4347 24.3986C33.4136 24.6256 33.3608 24.8367 33.2922 25.0373C33.1075 25.5705 32.7696 25.998 32.3315 26.2778C31.8987 26.5576 31.3708 26.6896 30.806 26.6315C30.6054 26.6104 30.3942 26.5629 30.1831 26.4942C30.0142 26.4309 29.8558 26.3623 29.7027 26.2778C29.5549 26.2039 29.4124 26.1195 29.2752 26.035C28.9954 25.8661 28.742 25.7024 28.4939 25.5441C28.0822 25.2801 27.6705 25.0109 27.264 24.7945C26.2241 24.2403 25.2528 23.6068 24.3819 22.8572C23.5901 22.171 22.8774 21.3898 22.2704 20.4977L22.2651 20.5294C22.149 21.2314 22.0434 21.8965 21.8217 22.5352C21.4944 23.4643 21.4469 24.2772 21.6475 25.0321C21.8481 25.7975 22.3073 26.5206 22.9936 27.2491C24.3819 28.7377 25.5484 30.411 26.715 32.0738L27.1426 32.6861C27.3854 33.0345 27.5965 33.4198 27.7602 33.8263C27.9291 34.238 28.0558 34.6762 28.1297 35.0984C28.5203 37.2838 28.8634 39.4797 29.2065 41.6704C29.3279 42.4569 29.4494 43.2434 29.5972 44.1513V44.1566C29.7608 45.1965 29.6024 46.0358 29.1274 46.6745C28.6576 47.308 27.8869 47.7144 26.8259 47.8886C25.9074 48.0364 25.0734 47.8411 24.4294 47.3607C23.7854 46.8909 23.3367 46.1467 23.1678 45.2071C23.0252 44.3941 22.8669 43.4757 22.698 42.5149C22.5396 41.6176 22.3865 40.7149 22.2282 39.8176C22.2018 39.6381 22.149 39.353 22.0962 39.0627C21.9642 38.3079 21.8323 37.5583 21.7214 36.7665C21.6792 36.4445 21.5894 36.1594 21.4575 35.8955C21.3202 35.6316 21.1355 35.3782 20.9032 35.1354C19.895 34.0902 18.8921 32.9817 17.8469 31.8257C17.6621 31.6198 17.4721 31.4139 17.1923 31.1025ZM16.0521 31.7887C16.1947 31.34 16.3319 30.8808 16.5642 30.0996L16.6645 29.7776L17.1976 29.7881L17.3243 29.9306C17.5143 30.1418 18.0158 30.6908 18.5067 31.2345C19.5308 32.3641 20.5126 33.4462 21.5472 34.5231C21.8375 34.8292 22.0751 35.1512 22.2493 35.4943C22.4235 35.8427 22.5449 36.2228 22.6029 36.6451C22.7032 37.3788 22.8405 38.1442 22.9725 38.9096C23.0147 39.1261 23.0516 39.3425 23.1044 39.6698C23.2628 40.5671 23.4159 41.4645 23.5742 42.3671C23.7167 43.2012 23.8698 44.0774 24.044 45.054C24.1707 45.7613 24.4927 46.3103 24.9519 46.6481C25.4112 46.986 26.0077 47.1232 26.6833 47.0124C27.5068 46.8751 28.0875 46.5901 28.4147 46.1467C28.742 45.7085 28.8423 45.0857 28.7209 44.2939C28.5995 43.5443 28.4622 42.6733 28.325 41.8076C27.9872 39.617 27.6441 37.4316 27.2534 35.2515C27.1901 34.8873 27.0792 34.5178 26.9367 34.1588C26.7942 33.8157 26.62 33.4885 26.4194 33.1981C26.3191 33.0609 26.2611 32.9764 25.9866 32.5805C24.8411 30.9389 23.6903 29.2919 22.3496 27.8561C21.5631 27.0221 21.0299 26.1775 20.7871 25.259C20.5443 24.33 20.5971 23.3482 20.9824 22.2396C21.183 21.6748 21.2833 21.0519 21.3889 20.3921C21.4416 20.049 21.4997 19.6953 21.5631 19.3733L21.732 18.5024L22.3232 19.1622C22.3865 19.2308 22.4657 19.31 22.5343 19.3786C22.661 19.5106 22.7507 19.6056 22.8352 19.7376C23.4317 20.6772 24.1549 21.4848 24.9625 22.1816C25.7807 22.8889 26.6992 23.4854 27.681 24.0133C28.1403 24.2561 28.5573 24.5253 28.9743 24.7945C29.2329 24.9634 29.4969 25.1323 29.7344 25.2749H29.7397C29.8611 25.3488 29.9878 25.4279 30.1145 25.4913C30.2359 25.5546 30.3573 25.6127 30.4734 25.6549C30.6159 25.7024 30.7585 25.7341 30.8957 25.7499C31.2547 25.7869 31.5872 25.7024 31.8564 25.5335C32.1256 25.3593 32.3368 25.0901 32.4582 24.747C32.5004 24.615 32.5321 24.4672 32.5479 24.3089C32.5902 23.9446 32.5215 23.6385 32.3737 23.3798C32.2154 23.1053 31.9673 22.8678 31.6611 22.6672H31.6558C31.1227 22.3135 30.6318 22.0021 30.1461 21.6907C29.2646 21.1258 28.3883 20.5663 27.5174 19.9751V19.9698C27.3062 19.8273 27.1004 19.6478 26.9156 19.4472C26.7414 19.2519 26.5883 19.0355 26.4722 18.8138C26.0499 17.9798 25.6171 17.0877 25.1842 16.1956C24.5613 14.9023 23.9332 13.609 23.2522 12.3422C23.0411 11.9568 22.7771 11.5451 22.4657 11.202C22.2282 10.9381 21.9695 10.7216 21.7003 10.5949C20.7132 10.1304 19.6944 9.86121 18.6809 9.87704C17.7677 9.8876 16.8598 10.1304 15.9782 10.653C14.7325 11.392 13.5237 12.2155 12.3096 13.0337C11.7975 13.3821 11.2855 13.7252 10.7154 14.1052C10.2351 14.4167 9.83917 14.7967 9.51189 15.2296C9.17934 15.6624 8.91012 16.1586 8.69898 16.7023C8.10249 18.2173 7.4321 19.8484 6.76699 21.4848C6.65614 21.754 6.56112 21.9863 6.00687 23.3429L5.98575 23.4009C5.77461 23.9499 5.74821 24.4725 5.88546 24.8895C6.01214 25.2801 6.28663 25.5863 6.68253 25.7499L6.71421 25.7605V25.7658C7.29486 25.9875 7.82272 25.998 8.25029 25.808C8.67786 25.618 9.02098 25.2274 9.24796 24.6414C9.42215 24.2086 9.61219 23.7229 9.8075 23.2426C10.309 21.9968 10.8104 20.7563 11.2169 19.4947C11.4175 18.8666 11.7342 18.4337 12.1512 18.117C12.5577 17.8109 13.0433 17.6314 13.6081 17.4994L14.2891 17.3358L14.1465 18.022C14.1307 18.0748 14.1096 18.1856 14.0885 18.2912C14.0621 18.4285 14.041 18.5499 14.004 18.6924C13.7506 19.6953 13.4392 20.8936 13.1278 22.0918C12.4627 24.6573 11.7975 27.2227 11.2063 29.8092C10.8474 31.3981 10.3987 32.9395 9.81805 34.4228C9.22684 35.9166 8.50367 37.3524 7.5799 38.7302C6.74588 39.9759 6.01742 41.3167 5.28897 42.6416L5.19395 42.8158C4.91419 43.3331 4.72415 43.861 4.69776 44.3783C4.67137 44.8692 4.79805 45.3654 5.14117 45.8458C5.36815 46.1678 5.63208 46.4159 5.92241 46.6006C6.32886 46.8593 6.77755 46.9807 7.22096 46.9649C7.66964 46.9543 8.11305 46.8065 8.51423 46.5214C8.80455 46.3156 9.06848 46.0411 9.29019 45.6874C9.9553 44.637 10.5729 43.6287 11.1905 42.6152C11.8873 41.4698 12.5841 40.3243 13.302 39.2052C13.6662 38.6351 13.9882 38.0545 14.2627 37.4422C14.5372 36.8404 14.7641 36.2175 14.9436 35.563C15.2656 34.3594 15.651 33.0978 16.0521 31.7887Z" fill="#003067"/>
<path d="M25.2689 4.93096C25.2531 6.2559 24.7094 7.44888 23.8384 8.3093C22.9621 9.16972 21.7639 9.69758 20.4389 9.6923L20.3703 9.68703C19.0612 9.66591 17.8788 9.11165 17.0289 8.24068C16.1843 7.36442 15.6618 6.16617 15.667 4.85706V4.78316C15.6934 3.45822 16.2477 2.27052 17.1239 1.42066C18.0055 0.570795 19.209 0.0534872 20.5392 0.0693232H20.5445C21.8642 0.0851591 23.0519 0.634139 23.907 1.51567C24.7569 2.39721 25.2795 3.60074 25.2689 4.92568V4.93096ZM23.2155 7.67586C23.9228 6.97908 24.3662 6.00781 24.3821 4.92568H24.3768H24.3821V4.9204C24.3926 3.83828 23.9651 2.85117 23.2683 2.13328C22.5715 1.41538 21.6055 0.966694 20.5392 0.956137H20.5339C19.4465 0.945579 18.4647 1.36259 17.7468 2.05937C17.0289 2.75088 16.575 3.72215 16.5538 4.80427V4.85706C16.5486 5.92863 16.9761 6.90518 17.6676 7.61779C18.3591 8.33041 19.3199 8.78438 20.3861 8.80021L20.4442 8.80549C21.5211 8.80549 22.5029 8.37792 23.2155 7.67586Z" fill="#092E6C"/>
<path d="M3.74268 26.8373C3.55264 26.832 3.36261 26.8109 3.17258 26.774C2.98255 26.7317 2.78724 26.679 2.59193 26.6051L2.54442 26.5839C1.88987 26.32 1.44118 25.8133 1.23532 25.1745C1.03473 24.5622 1.06112 23.839 1.34617 23.0948L1.37784 23.0209L2.14324 21.1469C2.77668 19.6056 3.40484 18.0642 4.06467 16.3856C4.30749 15.768 4.61365 15.2032 4.99899 14.6964C5.38434 14.1897 5.85414 13.7463 6.41895 13.3715C6.91514 13.0442 7.4694 12.6694 8.01838 12.2999C9.22192 11.487 10.4254 10.6688 11.7187 9.89813C12.0196 9.71865 12.3258 9.56557 12.6372 9.44416C12.9486 9.31748 13.2706 9.21718 13.5926 9.14856L13.7827 10.0143C13.5135 10.0723 13.239 10.1568 12.9645 10.2676C12.7005 10.3732 12.4366 10.5052 12.1727 10.6635H12.1674C10.9533 11.3867 9.73394 12.2102 8.51458 13.0336C7.99727 13.382 7.48524 13.7357 6.90987 14.1105C6.42951 14.4272 6.03361 14.8073 5.70633 15.2348C5.3685 15.673 5.10457 16.1639 4.89342 16.7076C4.29693 18.2226 3.63182 19.8537 2.96671 21.4795C2.85058 21.7645 2.72917 22.0601 2.20131 23.3534L2.18019 23.4115C1.96905 23.9605 1.94265 24.4778 2.0799 24.9001C2.20659 25.2907 2.48108 25.5968 2.88225 25.7605L2.90865 25.771C3.06173 25.8291 3.20953 25.8766 3.35205 25.903C3.49458 25.9347 3.62654 25.9505 3.75323 25.9505L3.74268 26.8373Z" fill="#999999"/>
<path d="M3.36778 47.8622C2.83992 47.8622 2.31733 47.7355 1.8317 47.4663C1.37245 47.2182 0.95544 46.854 0.612328 46.3683C0.142528 45.7085 -0.0316677 45.0223 0.0052829 44.3413C0.0369548 43.6762 0.269215 43.0269 0.607049 42.3988L0.686229 42.2562C1.42524 40.8996 2.17481 39.5325 3.04051 38.2445C3.91676 36.9301 4.61355 35.5471 5.18364 34.106C5.74846 32.6597 6.18658 31.1605 6.53498 29.6192V29.6139C6.58248 29.4186 6.62471 29.218 6.64055 29.1599L7.50625 29.3605C7.44818 29.598 7.42707 29.7036 7.40595 29.8039L7.40067 29.8145C7.04173 31.4033 6.59304 32.9447 6.01239 34.4333C5.42118 35.9219 4.69273 37.3629 3.77424 38.7354C2.92966 39.997 2.19592 41.343 1.46747 42.6785L1.38829 42.8211C1.10852 43.3384 0.91849 43.8662 0.892096 44.3835C0.865703 44.8797 0.992391 45.3707 1.3355 45.851C1.59944 46.2258 1.91615 46.5056 2.25399 46.6903C2.60766 46.8803 2.98244 46.9754 3.36251 46.9754L3.36778 47.8622Z" fill="#999999"/>
<path d="M13.5714 8.56263C13.0277 8.10339 12.5842 7.52274 12.2886 6.86291C12.0036 6.22947 11.8505 5.52741 11.8664 4.78312C11.8927 3.4529 12.4417 2.27048 13.318 1.42062C14.1995 0.565475 15.403 0.0534456 16.7333 0.0640029L16.728 0.950816C15.6406 0.940259 14.6588 1.36255 13.9409 2.05405C13.223 2.75084 12.7743 3.71683 12.7532 4.79895C12.7373 5.406 12.864 5.98137 13.1016 6.49868C13.3391 7.0371 13.7033 7.5069 14.1467 7.88169L13.5714 8.56263Z" fill="#999999"/>
<path fill-rule="evenodd" clip-rule="evenodd" d="M41.944 37.136L39.6372 40.1448C39.9223 40.0182 40.2601 39.9179 40.6771 39.9179C41.3739 39.9179 42.2132 40.1871 42.7727 40.7308C43.2689 41.2006 43.6701 42.0135 43.6701 43.0112C43.6701 43.8082 43.4431 44.6053 42.8044 45.3074C41.9915 46.1889 41.0625 46.3895 40.0965 46.3895C39.083 46.3895 38.1698 46.2047 37.3885 45.4182C36.8712 44.9062 36.4595 44.1777 36.4595 43.1115C36.4595 41.9554 36.9873 41.0264 37.6577 40.1448L40.4501 36.4128L41.9493 37.136H41.944ZM41.3053 44.4206C41.5323 44.1936 41.8173 43.7924 41.8173 43.1695C41.8173 42.5994 41.6167 42.1718 41.2894 41.8551C40.9358 41.512 40.5346 41.4012 40.0648 41.4012C39.5105 41.4012 39.1358 41.5859 38.8243 41.9132C38.4812 42.2669 38.3123 42.6258 38.3123 43.1537C38.3123 43.6815 38.4812 44.1091 38.8401 44.4364C39.083 44.6634 39.4947 44.9062 40.0648 44.9062C40.6666 44.9062 41.0625 44.6634 41.3053 44.4206Z" fill="#003067"/>
<path fill-rule="evenodd" clip-rule="evenodd" d="M44.6416 41.417C44.6416 38.1495 46.4258 36.4551 48.3208 36.4551C50.2211 36.4551 52 38.1495 52 41.4276C52 44.6951 50.2211 46.3895 48.3208 46.3895C46.4258 46.3895 44.6416 44.6898 44.6416 41.417ZM46.4944 41.417C46.4944 43.8927 47.5079 44.7901 48.3208 44.7901C49.1337 44.7901 50.1472 43.8927 50.1472 41.417C50.1472 38.9466 49.1232 38.0492 48.3208 38.0492C47.5237 38.0492 46.4944 38.9466 46.4944 41.417Z" fill="#003067"/>
</svg>

<svg xmlns="http://www.w3.org/2000/svg" width="52" height="48" fill="none" viewBox="0 0 52 48">
	<path fill="#003067" d="m17.192 31.102-.29.945c-.38 1.251-.75 2.46-1.103 3.748-.19.697-.433 1.367-.723 2.017a16.12 16.12 0 0 1-1.024 1.868v.006c-.724 1.124-1.415 2.259-2.107 3.394-.638 1.045-1.277 2.095-1.905 3.083a3.774 3.774 0 0 1-1.014 1.082 3.208 3.208 0 0 1-1.779.607 3.138 3.138 0 0 1-1.8-.502 3.637 3.637 0 0 1-1.029-.987c-.47-.66-.644-1.346-.607-2.032.032-.66.264-1.315.602-1.938l.1-.179c.734-1.346 1.478-2.697 2.333-3.98a21.801 21.801 0 0 0 2.143-4.133c.57-1.447 1.003-2.946 1.352-4.487.59-2.597 1.261-5.168 1.926-7.744.27-1.035.539-2.07.85-3.289a2.002 2.002 0 0 0-.433.243c-.274.206-.48.502-.622.94-.417 1.299-.924 2.555-1.431 3.811-.18.449-.359.898-.554 1.394-.317.807-.824 1.367-1.468 1.652-.644.285-1.399.28-2.212-.032v.006l-.047-.022a2.222 2.222 0 0 1-1.31-1.409c-.2-.607-.173-1.336.112-2.08l.031-.074.76-1.858a369.427 369.427 0 0 0 1.927-4.777 6.862 6.862 0 0 1 .935-1.684 5.8 5.8 0 0 1 1.42-1.33c.496-.327 1.04-.697 1.588-1.066 1.22-.824 2.434-1.647 3.711-2.407v.005a6.223 6.223 0 0 1 3.146-.903c1.156-.016 2.307.28 3.41.803.386.18.74.475 1.046.813.364.4.67.876.907 1.32.687 1.271 1.32 2.58 1.954 3.884.411.855.823 1.71 1.277 2.597v.006c.08.153.185.3.311.438.132.148.285.28.444.39.855.581 1.731 1.14 2.608 1.7.522.338 1.05.676 1.52.982.422.28.765.612.997 1.013.238.417.349.903.29 1.463a2.748 2.748 0 0 1-.142.638c-.184.534-.522.961-.96 1.24-.433.28-.961.413-1.526.354a3.073 3.073 0 0 1-.623-.137 3.589 3.589 0 0 1-.48-.216 5.577 5.577 0 0 1-.428-.243c-.28-.169-.533-.333-.781-.49-.412-.265-.823-.534-1.23-.75-1.04-.555-2.011-1.188-2.882-1.938a12.203 12.203 0 0 1-2.112-2.36l-.005.032c-.116.702-.222 1.367-.443 2.006-.328.93-.375 1.742-.174 2.497.2.765.66 1.489 1.346 2.217 1.388 1.489 2.554 3.162 3.721 4.825l.428.612c.242.349.453.734.617 1.14.17.412.296.85.37 1.272.39 2.186.733 4.382 1.076 6.572.122.787.243 1.573.391 2.481v.006c.164 1.04.005 1.879-.47 2.518-.47.633-1.24 1.04-2.301 1.214-.919.147-1.753-.048-2.397-.528-.644-.47-1.092-1.214-1.261-2.154-.143-.813-.301-1.731-.47-2.692-.158-.897-.311-1.8-.47-2.697-.026-.18-.079-.465-.132-.755-.132-.755-.264-1.505-.375-2.297a2.706 2.706 0 0 0-.264-.87 3.321 3.321 0 0 0-.554-.76 140.943 140.943 0 0 1-3.056-3.31c-.185-.206-.375-.412-.655-.724zm-1.14.687c.143-.449.28-.908.512-1.69l.1-.321.534.01.126.143c.19.21.692.76 1.183 1.303a153.766 153.766 0 0 0 3.04 3.29c.29.305.528.627.702.97.175.349.296.729.354 1.151.1.734.237 1.5.37 2.265.042.216.079.433.131.76.159.897.312 1.794.47 2.697.143.834.296 1.71.47 2.687.127.707.449 1.256.908 1.594.46.338 1.056.475 1.731.364.824-.137 1.404-.422 1.732-.865.327-.438.427-1.061.306-1.853-.122-.75-.259-1.62-.396-2.486-.338-2.191-.68-4.376-1.072-6.556a5.225 5.225 0 0 0-.834-2.053c-.1-.138-.158-.223-.432-.618-1.146-1.642-2.297-3.29-3.637-4.725-.787-.834-1.32-1.679-1.563-2.597-.243-.929-.19-1.91.195-3.02.201-.564.301-1.187.407-1.847.053-.343.11-.697.174-1.019l.169-.87.591.66c.064.068.143.147.211.216.127.132.217.227.301.359.597.94 1.32 1.747 2.127 2.444.819.707 1.737 1.303 2.719 1.831.46.243.876.512 1.293.781.259.17.523.338.76.48h.006c.121.075.248.154.375.217.12.064.242.122.358.164.143.047.286.08.423.095.359.037.691-.048.96-.216.27-.175.48-.444.602-.787.042-.132.074-.28.09-.438a1.478 1.478 0 0 0-.174-.93c-.159-.274-.407-.511-.713-.712h-.005c-.533-.354-1.024-.665-1.51-.976-.881-.565-1.758-1.125-2.629-1.716v-.005a3.188 3.188 0 0 1-1.045-1.156c-.422-.834-.855-1.726-1.288-2.618-.623-1.294-1.25-2.587-1.932-3.854a6.02 6.02 0 0 0-.786-1.14c-.238-.264-.497-.48-.766-.607-.987-.465-2.006-.734-3.02-.718a5.351 5.351 0 0 0-2.702.776c-1.245.739-2.454 1.563-3.668 2.38-.513.35-1.024.692-1.595 1.072-.48.312-.876.692-1.203 1.125a5.928 5.928 0 0 0-.813 1.472c-.597 1.515-1.267 3.146-1.932 4.783l-.76 1.858-.021.058c-.211.549-.238 1.072-.1 1.489.126.39.4.696.797.86l.031.01v.006c.58.222 1.109.232 1.536.042.428-.19.771-.58.998-1.167.174-.432.364-.918.56-1.398.501-1.246 1.002-2.487 1.409-3.748.2-.628.517-1.061.934-1.378.407-.306.892-.486 1.457-.618l.681-.163-.143.686c-.015.053-.036.164-.058.27-.026.136-.047.258-.084.4a552.675 552.675 0 0 1-.876 3.4c-.665 2.565-1.33 5.13-1.922 7.717a31.916 31.916 0 0 1-1.388 4.614A22.596 22.596 0 0 1 7.58 38.73c-.834 1.246-1.563 2.587-2.291 3.912l-.095.174c-.28.517-.47 1.045-.496 1.562-.027.491.1.987.443 1.468.227.322.491.57.781.755.407.258.856.38 1.299.364.449-.01.892-.159 1.293-.444.29-.205.554-.48.776-.834.665-1.05 1.283-2.058 1.9-3.072.697-1.145 1.394-2.29 2.112-3.41.364-.57.686-1.15.96-1.763.275-.602.502-1.224.682-1.879.322-1.204.707-2.465 1.108-3.774z"/>
	<path fill="#092E6C" d="M25.269 4.931a4.805 4.805 0 0 1-4.83 4.761l-.069-.005a4.771 4.771 0 0 1-3.341-1.446 4.845 4.845 0 0 1-1.362-3.384v-.074a4.801 4.801 0 0 1 1.457-3.362A4.816 4.816 0 0 1 20.539.069h.005a4.745 4.745 0 0 1 3.363 1.447 4.843 4.843 0 0 1 1.362 3.41v.005zm-2.053 2.745a3.926 3.926 0 0 0 1.166-2.75h-.005.005V4.92a3.939 3.939 0 0 0-1.114-2.787A3.848 3.848 0 0 0 20.54.956h-.005a3.92 3.92 0 0 0-3.98 3.848v.053a3.93 3.93 0 0 0 1.114 2.76A3.862 3.862 0 0 0 20.386 8.8l.058.005a3.937 3.937 0 0 0 2.771-1.13z"/>
	<path fill="#999" d="M3.743 26.837a3.498 3.498 0 0 1-.57-.063 4.227 4.227 0 0 1-.581-.169l-.048-.021a2.222 2.222 0 0 1-1.309-1.41c-.2-.612-.174-1.335.111-2.08l.032-.073.765-1.874a326.428 326.428 0 0 0 1.922-4.761 6.997 6.997 0 0 1 .934-1.69c.385-.506.855-.95 1.42-1.325.496-.327 1.05-.702 1.6-1.071 1.203-.813 2.406-1.631 3.7-2.402.3-.18.607-.332.918-.454a5.7 5.7 0 0 1 .956-.295l.19.865c-.27.058-.544.143-.819.254a5.543 5.543 0 0 0-.791.396h-.006c-1.214.723-2.433 1.546-3.652 2.37-.518.348-1.03.702-1.605 1.076-.48.317-.876.697-1.204 1.125-.338.438-.601.929-.813 1.473a398.477 398.477 0 0 1-1.926 4.772L2.2 23.353l-.02.058c-.212.55-.238 1.067-.101 1.49.127.39.401.696.802.86l.027.01a2.61 2.61 0 0 0 .844.18l-.01.886zM3.368 47.862c-.528 0-1.05-.127-1.536-.396a3.573 3.573 0 0 1-1.22-1.098c-.47-.66-.644-1.346-.607-2.027.032-.665.264-1.314.602-1.942l.08-.143c.738-1.356 1.488-2.724 2.354-4.011a21.992 21.992 0 0 0 2.143-4.139 31.239 31.239 0 0 0 1.351-4.487v-.005c.047-.195.09-.396.106-.454l.865.2c-.058.238-.079.344-.1.444l-.005.01a32.194 32.194 0 0 1-1.389 4.62 22.857 22.857 0 0 1-2.238 4.301c-.844 1.262-1.578 2.608-2.307 3.944l-.079.142c-.28.517-.47 1.045-.496 1.563-.026.496.1.987.443 1.467.264.375.581.655.919.84.354.19.728.284 1.109.284l.005.887zM13.571 8.563a4.8 4.8 0 0 1-1.705-3.78 4.786 4.786 0 0 1 1.452-3.362A4.82 4.82 0 0 1 16.733.064l-.005.887a3.91 3.91 0 0 0-3.975 3.848c-.016.607.111 1.182.349 1.7a3.859 3.859 0 0 0 1.045 1.383l-.576.68z"/>
	<path fill="#003067" fill-rule="evenodd" d="m41.944 37.136-2.307 3.009a2.503 2.503 0 0 1 1.04-.227c.697 0 1.536.27 2.096.813.496.47.897 1.282.897 2.28 0 .797-.227 1.594-.866 2.296-.813.882-1.742 1.082-2.708 1.082-1.013 0-1.926-.184-2.707-.97-.518-.513-.93-1.241-.93-2.307 0-1.157.528-2.086 1.199-2.967l2.792-3.732 1.5.723h-.006zm-.639 7.285c.227-.227.512-.629.512-1.252 0-.57-.2-.997-.528-1.314-.353-.343-.754-.454-1.224-.454-.554 0-.93.185-1.24.512-.344.354-.513.713-.513 1.24 0 .529.17.956.528 1.283.243.227.655.47 1.225.47.602 0 .998-.243 1.24-.485zM44.642 41.417c0-3.267 1.784-4.962 3.679-4.962 1.9 0 3.679 1.695 3.679 4.973 0 3.267-1.779 4.962-3.68 4.962-1.894 0-3.678-1.7-3.678-4.973zm1.852 0c0 2.476 1.014 3.373 1.827 3.373s1.826-.897 1.826-3.373c0-2.47-1.024-3.368-1.826-3.368-.797 0-1.827.898-1.827 3.368z" clip-rule="evenodd"/>
</svg>
